packages/vapor/resources/icons/svg/source-jira.svg

<svg enable-background="new 0 0 73.3 75.8" viewBox="0 0 73.3 75.8" xmlns="http://www.w3.org/2000/svg" xmlns:xlink="http://www.w3.org/1999/xlink"><linearGradient id="a"><stop offset=".18" stop-color="#0052cc"/><stop offset="1" stop-color="#2684ff"/></linearGradient><linearGradient id="b" gradientTransform="matrix(1 0 0 -1 0 78)" gradientUnits="userSpaceOnUse" x1="34.6324" x2="18.9924" xlink:href="#a" y1="62.655" y2="47.015"/><linearGradient id="c" gradientTransform="matrix(1 0 0 -1 0 78)" gradientUnits="userSpaceOnUse" x1="38.7774" x2="54.3874" xlink:href="#a" y1="17.72" y2="33.33"/><path d="m72.4 35.8-32.6-32.6-3.2-3.2-24.5 24.5-11.2 11.3c-1.2 1.2-1.2 3.1 0 4.2l22.4 22.4 13.3 13.3 24.5-24.5.4-.4 10.9-10.8c1.2-1.2 1.2-3.1 0-4.2zm-35.8 13.3-11.2-11.2 11.2-11.2 11.2 11.2z" fill="#2684ff"/><path d="m36.6 26.7c-7.3-7.3-7.4-19.2-.1-26.6l-24.5 24.5 13.3 13.3z" fill="url(#b)"/><path d="m47.9 37.8-11.3 11.3c7.4 7.4 7.4 19.3 0 26.7l24.6-24.6z" fill="url(#c)"/></svg>

<svg xmlns="http://www.w3.org/2000/svg" viewBox="0 0 73.3 75.8" enable-background="new 0 0 73.3 75.8">
<g>
	<g>
		<path fill="#2684FF" d="M72.4,35.8L39.8,3.2L36.6,0l0,0L12.1,24.5l0,0L0.9,35.8c-1.2,1.2-1.2,3.1,0,4.2l22.4,22.4l13.3,13.3
			l24.5-24.5l0.4-0.4L72.4,40C73.6,38.8,73.6,36.9,72.4,35.8z M36.6,49.1L25.4,37.9l11.2-11.2l11.2,11.2L36.6,49.1z"/>
		
			<linearGradient id="SVGID_1_" gradientUnits="userSpaceOnUse" x1="34.6324" y1="62.655" x2="18.9924" y2="47.015" gradientTransform="matrix(1 0 0 -1 0 78)">
			<stop  offset="0.18" style="stop-color:#0052CC"/>
			<stop  offset="1" style="stop-color:#2684FF"/>
		</linearGradient>
		<path fill="url(#SVGID_1_)" d="M36.6,26.7c-7.3-7.3-7.4-19.2-0.1-26.6L12,24.6l13.3,13.3L36.6,26.7z"/>
		
			<linearGradient id="SVGID_2_" gradientUnits="userSpaceOnUse" x1="38.7774" y1="17.72" x2="54.3874" y2="33.33" gradientTransform="matrix(1 0 0 -1 0 78)">
			<stop  offset="0.18" style="stop-color:#0052CC"/>
			<stop  offset="1" style="stop-color:#2684FF"/>
		</linearGradient>
		<path fill="url(#SVGID_2_)" d="M47.9,37.8L36.6,49.1c7.4,7.4,7.4,19.3,0,26.7c0,0,0,0,0,0l0,0l24.6-24.6L47.9,37.8z"/>
	</g>
</g>
</svg>
